X: 21202
P: Ma belle amie.
M: 6/8
L: 1/8
K: A
a |\
g2f e2^d | e3 c2c | d2c d2^d | e3 cea |\
g2f e2^d | e3 c2c | d2c d2e | A2z [a2c2]z |]
K: D
efe eBe | g3- gfe | AAA Afe | d3- d2"^D.C."z |]


